!!!OTL: Graf und Nonne (Die Nonne) Ich stand auf hohem Berge
!!!ARE: Europa, Mitteleuropa, Deutschland (BRD), Nordrhein - Westfalen, Muenster
!!!YOR: 8, S. 60
!!    ???? aufgezeichnet
!!!SCT: Q0155N
!!!YEM: Copyright 1995, estate of Helmut Schaffrath.
**kern
*ICvox
*Ivox
*M3/4
*k[f#]
*G:
{4d
=1
2g
4d
=2
4d
4g
4b
=3
4b
4a}
{4d
=4
4d
4f#
4a
=5
4ee
4dd
4cc
=6
2b}
{8g
8b
=7
2dd
4dd
=8
4dd
4cc
4b
=9
4cc
4a
4d
=10
4e
4d}
{4d
=11
4d
4f#
4a
=12
4ee
4dd
4cc
=13
2b}
{8g
8b
=14
2dd
4dd
=15
4dd
4cc
4b
=16
4cc
4a
4d
=17
4e
4d}
{4d
=18
4d
4f#
4a
=19
4ee
4dd
4cc
=20
2b}
==
!!!AGN: Ballade, Standesunterschied, vergebliche Werbung, Liebe;, Soldaten - Lied
!! Anhaengsel an der dritten bzw. fuenften Zeile.
!!!ONB: ESAC (Essen Associative Code) Database: BALLADE
!!!AMT: simple triple
!!!AIN: vox
!!!EED: Helmut Schaffrath
!!!EEV: 1.0
*-
